X: 32490
T: Plane Of The Plank, The
R: hornpipe
M: 4/4
K: Gmajor
|:(3DEF|GABd g2fg|eGce d2Bd|cece d2BG|DFAB cAFA|
BGBd g2fg|eceg f2ga|bgdB cGEG|(3FED BA G2:|
|:(3ABc|dGBd cedc|BAGF G2AB|c2cd edcB|Adfg a2fa|
~g2dg ~e2ce|~d2Bd cedc|(3Bcd gd ecAF|DGGF G2:|

